X: 1
T: Captain Macintosh  v.1
P: piffero primo b0004
O: Cushing
%R: march
F: http://ancients.sudburymuster.org/mus/ssp/pdf/MacintosF.pdf
Z: 2019 John Chambers <jc:trillian.mit.edu>
M: 2/4
L: 1/16
K: D
A2 |\
d3e d3e | c2A2 A2A2 | d3e d2f2 | a6 f2 |\
b2g2 g2e2 | a2f2 f2d2 | e2f2 g2e2 | d2c2 B2A2 ||\
d3e d3e | c2A2 A2A2 |
d3e d2f2 | a6 f2 |\
b2g2 g2e2 | a2f2 f2d2 | g2e2 e2c2 | d6 :: f2 |\
a3b a3b | g2e2 e2f2 | g3a g3a | f6 d2 |\
A2de f2d2 |
B2ef g2e2 | b2g2 e2d2 | d2c2 B2A2 ||\
d3e d3e | c2A2 A2A2 | d3e d2f2 | a6 f2 |\
b2g2 g2e2 | a2f2 f2d2 | g2e2 e2c2 | d6 :|
